X: 28
T: 28. Nun komm, der Heiden Heiland
N: Derived from chor028.krn
C: Johann Sebastian Bach
%%abc-version 2.0
%%abcx-abcm2ps-target-version 5.9.1 (29 Sep 2008)
%%abc-creator hum2abc beta
%%abcx-conversion-date 2019/03/11 17:28:17
%%abc-edited-by Craig Stuart Sapp
%%humdrum-veritas 2980794296
%%humdrum-veritas-data 4082066586
%%
%%barnumbers 0
L: 1/8
M: C
%%staves [1 2 3 4]
V: 1 clef=treble
V: 2 clef=treble
V: 3 clef=treble-8
V: 4 clef=bass
K: D
[V:1] B2B2A2d2 | 
[V:2] F2E2F2FG/A/ | 
[V:3] d2cBc2B2 | 
[V:4] B,A,G,2F,E,D,B,, | 
[V:1] cBc2!fermata!B4 | 
[V:2] GFE2!fermata!D4 | 
[V:3] B3^A!fermata!F4 | 
[V:4] E,D,E,F,!fermata!B,,4 | 
[V:1] Bcd2e2d2 | 
[V:2] F3^GA3B | 
[V:3] dcB2c2d2 | 
[V:4] B,,2B,2=A,=G,F,2 | 
[V:1] e2f2!fermata!d4 | 
[V:2] c2dF!fermata!G4 | 
[V:3] G2AB/=c/!fermata!B4 | 
[V:4] E,2D,2!fermata!G,4 | 
[V:1] d2e2fed2 | 
[V:2] A2A2A^AB2 | 
[V:3] A2e2dcB2 | 
[V:4] F,E,D,C,D,2G,F, | 
[V:1] edc2!fermata!B4 | 
[V:2] cB^A2!fermata!F4 | 
[V:3] g2cf!fermata!d4 | 
[V:4] E,2F,2!fermata!B,,4 | 
[V:1] B2B2A2d2 | 
[V:2] F2^E2F^G AB | 
[V:3] d2cBc2f2 | 
[V:4] B,A,^G,2F,E,F,G, | 
[V:1] cBc2!fermata!B4 |]  
[V:2] FB- B^A!fermata!F4 |]  
[V:3] ed c/d/e!fermata!^d4 |]  
[V:4] ^A,B,F,2!fermata!B,,4 |]  



